svg/u1f40e.svg

<svg viewBox="0 0 128 128" xmlns="http://www.w3.org/2000/svg">
  <path d="M17.75,18.55c0,0-3.18-7.15-5.26-6.55s-0.3,10.03-0.3,10.03L17.75,18.55z" fill="#FEAF5F"/>
  <path d="M101.65,56.28c0,0,3.77-1.29,6.45,2.38c2.68,3.67,1.6,7.93,5.19,12.87c2.26,3.1,5.07,2.26,7.99,1.42 c2.99-0.85,5.26-0.94,5.36,0.99c0.03,0.58-0.73,4.22-3.97,7.55c-3.57,3.67-8.39,6.25-15.58,3.43c-6.58-2.58-8.42-11.17-8.42-11.17 L101.65,56.28z" fill="#865B52"/>
  <path d="M58.46,44.66c0,0,7.8-4.65,6.25-9.23c-1.64-4.85-7.64-0.69-8.94-2.28 c-1.43-1.76,5.86-6.16,1.69-10.72s-8.61,1.9-10.13,0.1c-1.49-1.77,3.47-5.56,0.3-9.43s-8.54-0.2-10.13,0.99 c-1.17,0.88-3.38,2.48-6.16,3.08c-2.78,0.6-7.25-1.09-11.12-1.09s-9.63,2.58-10.82,7.64s-1.89,7.45-2.78,7.84s-3.38,0-3.47,1.79 s2.38,2.28,5.76,2.08s8.14-2.58,10.13-5.06s3.67-6.25,3.67-6.25L58.46,44.66z" fill="#865B52"/>
  <linearGradient id="SVGID_1_" gradientUnits="userSpaceOnUse" x1="23.8605" x2="19.9165" y1="70.7817" y2="102.3338">
    <stop offset="0.306" stop-color="#B3875D"/>
    <stop offset="0.5668" stop-color="#A87C5B"/>
    <stop offset="0.9265" stop-color="#916656"/>
  </linearGradient>
  <path d="M30.56,70.38c0,0-5.26,3.28-7.94,4.07c-2.68,0.79-6.25-0.3-8.74,2.18 c-2.48,2.48-1.09,4.77-2.08,7.25c-0.99,2.48-4.85,6.23-4.47,9.93c0.5,4.86,4.72,7.2,4.72,7.2s4.02-3.82,3.92-7.4s-0.1-5.26,0.4-6.95 s2.48-4.67,3.97-5.16c1.49-0.5,6.85-0.3,9.23-0.4s6.85-0.5,6.85-0.5L30.56,70.38z" fill="url(#SVGID_1_)"/>
  <linearGradient id="SVGID_2_" gradientUnits="userSpaceOnUse" x1="76.3991" x2="72.2626" y1="58.5873" y2="104.0895">
    <stop offset="0.4757" stop-color="#B3875D"/>
    <stop offset="0.7346" stop-color="#A4785A"/>
    <stop offset="0.9854" stop-color="#916656"/>
  </linearGradient>
  <path d="M87.05,59.56L62.63,80.8l-1.27,4.69c0,0,3.95-0.67,5.24-1.07c1.29-0.4,3.13-0.84,3.13-0.84 s0.63,0.83,1.04,2.88c0.5,2.48,0.4,4.07,0.2,4.37c-0.55,0.82-4.37,2.38-5.86,2.48s-5.26-0.53-7.05,2.28 c-1.39,2.18-0.66,3.15-0.79,3.67c-0.2,0.79-1.84,1.24-1.24,2.73s8.09,0.65,8.09,0.65s0.47-2.02,0.89-2.08 c1.04-0.15,2.78-0.6,3.87-1.99s9.53-1.99,10.42-3.77c1.29-2.58-0.2-5.96-0.3-9.13s-0.1-5.91,0.15-6.45c2.88-1.69,6.7-5.26,6.7-5.26 l6.85-12.01L87.05,59.56z" fill="url(#SVGID_2_)"/>
  <polygon fill="#B3875D" points="28.97,47.94 31.73,53.25 45.16,42.58 32.84,31.96 27.48,40.99 "/>
  <path d="M31.06,51.91c0.3,1.04,0.69,2.38,0.89,3.57c0.2,1.19,0.3,2.98,0.3,2.98s-3.92,2.28-4.47,5.96 c-0.51,3.45,0.12,9.11,1.71,11.99c1.59,2.88,4.1,5.14,6.7,6.03c2.82,0.97,6.24,2.85,12.81,3.43c4.57,0.4,10.92,1.29,18.76-2.68 c7.84-3.97,14.22-13.6,15.31-15.59s3.28-5.16,4.37-4.27c1.09,0.89-1.99,2.98-2.78,7.05c-0.79,4.07,0.26,8.97,6.06,10.72 c6.16,1.86,14.12-1.19,15.61-12.81s-5.29-19.73-11.54-22.93c-4.86-2.49-10.24-2.7-13.48-1.79c-1.76,0.5-3.3,1.89-4.84,2.38 c-1.26,0.41-6.75,0.58-9.68,0.4c-3.43-0.21-2.66-1.5-5.73-3.49c-3.08-1.99-4.02-1.41-5.19-2.57c-1.51-1.49-7.48-10.22-15.69-15.69 c-7.15-4.77-11.17-5.11-11.17-5.11s0.67-1.94,0.2-5.01c-0.3-1.94-1.99-5.21-3.08-5.31c-1.04-0.1-2.94,2.72-3.43,5.36 c-0.6,3.23,0.3,5.36,0.3,5.36s-0.22,6.55-3.95,11.02s11.91,2.23,14.07,3.2c2.16,0.97,3.86,5.58,3.57,9.61 C36.34,48.93,30.98,51.65,31.06,51.91z" fill="#FEAF5F"/>
  <linearGradient id="SVGID_3_" gradientUnits="userSpaceOnUse" x1="41.2991" x2="45.9983" y1="112.1117" y2="70.4907">
    <stop offset="0" stop-color="#865B52"/>
    <stop offset="0.5454" stop-color="#FEAF5F"/>
  </linearGradient>
  <path d="M41.63,82.07c0,0-0.74,2.01-1.12,2.31c-0.37,0.3-2.83,3.05-3.95,4.17 c-1.12,1.12-2.53,2.66-3.13,3.18s-3.11,1.89-2.98,4.49c0.2,4,2.18,4.39,2.61,6.48c0.35,1.73,0.7,4.15,1.86,6.03 c1.34,2.16,3.23,3.3,6.21,3.3c2.98,0,4.74-5.98,4.74-5.98s-2.61-3.72-3.8-3.5c-1.19,0.22-1.39,1.39-2.08,0.97 c-0.81-0.49-1.07-2.28-1.29-3.25c-0.22-0.97-0.82-2.13-0.45-2.58c0.37-0.45,4.16-2.44,6.13-3.77c3.3-2.23,11.91-8.94,11.91-8.94 s5.97-15.45-5.88-13.55C40.22,73.06,41.63,82.07,41.63,82.07z" fill="url(#SVGID_3_)"/>
  <linearGradient id="SVGID_4_" gradientUnits="userSpaceOnUse" x1="62.0575" x2="96.6871" y1="118.415" y2="68.9585">
    <stop offset="0" stop-color="#865B52"/>
    <stop offset="0.1355" stop-color="#9F6C55"/>
    <stop offset="0.4209" stop-color="#DD985B"/>
    <stop offset="0.5603" stop-color="#FEAF5F"/>
  </linearGradient>
  <path d="M95.89,59.36c-2.92-0.49-10.97,3.8-11.81,14.84c-0.45,5.91-1.27,10.7-1.64,12.26 c-0.37,1.56-1.04,3.65-1.41,3.95c-0.37,0.3-2.5,1.72-4.19,4.19c-1.74,2.53-1.24,5.19-1.76,5.93s-2.51,2.41-4.19,4.1 c-1.14,1.14-4.96,0.97-6.45,2.68c-1.49,1.71-1.27,3.57-1.27,3.57s-2.88,0.74-3.7,2.68c-0.82,1.94,1.09,4.39,2.73,4.62 s5.17,0.81,5.51,0.45c1.09-1.19,0.3-3.72,0.3-3.72s1.64,0,3.13-2.01s3.5-3.28,5.21-4.69s8.09-6.04,9.31-8.27 c1.61-2.95,1.04-5.73,2.16-7.52c1.12-1.79,3.3-3.7,7.4-7.05c3.28-2.68,7.09-5.04,9.78-11.67C108.84,64.17,97.68,59.66,95.89,59.36z" fill="url(#SVGID_4_)"/>
  <radialGradient id="SVGID_5_" cx="-0.1165" cy="70.5759" gradientUnits="userSpaceOnUse" r="51.6613">
    <stop offset="0.2263" stop-color="#865B52"/>
    <stop offset="0.2846" stop-color="#895D52"/>
    <stop offset="0.3359" stop-color="#946554"/>
    <stop offset="0.3846" stop-color="#A67255"/>
    <stop offset="0.4317" stop-color="#C08358"/>
    <stop offset="0.4772" stop-color="#E09A5C"/>
    <stop offset="0.5117" stop-color="#FEAF5F"/>
  </radialGradient>
  <path d="M33.96,33.37c-1.19,0.45-2.01,0.37-1.94,1.34c0.07,0.97,2.98,3.35,2.23,7.89 s-3.65,7-6.33,7.89s-5.56,0.77-5.56,0.77l-3.82,4.37c0,0,0.25,3.62-2.18,5.26c-1.8,1.21-2.88,0.84-2.88,0.84s-1.6,1.37-3.43,0.79 c-2.38-0.74-6.55-3.72-6.11-10.18c0.41-5.94,4.82-9.61,5.81-11.86c0.46-1.06,0.25-5.16,0.25-5.16s5.76-1.39,8.64-4.72 c2.05-2.37,3.82-5.86,3.92-7.3c0.1-1.44,16.93,5.06,16.93,5.06L33.96,33.37z" fill="url(#SVGID_5_)"/>
  <path d="M22.89,35.24c0.74,1.37,0.16,3-1.03,3.65c-0.98,0.54-3.05-0.06-3.58-1.4 c-0.62-1.58-0.26-2.87,0.94-3.52C20.42,33.33,22.15,33.87,22.89,35.24z" fill="#2F2927"/>
  <path d="M6.98,53.55c-0.82,0.78-0.74,2.33,0.15,3.87s1.94,2.28,2.93,1.64s0.55-2.53-0.1-4.02 S7.83,52.76,6.98,53.55z" fill="#523226"/>
  <path d="M14.42,55.34c0-0.3-1.49-2.87,0.22-3.8c1.13-0.61,2.38,0.3,2.27,1.86c-0.11,1.5-0.78,2.05-0.78,2.05 s0.15,0.78-0.41,3.61c-0.42,2.15-1.23,2.42-1.75,2.83c-0.39,0.31-2.35,0.97-2.05,0.48c0.3-0.48,1.79-2.31,2.12-3.98 C14.29,57.15,14.42,55.34,14.42,55.34z" fill="#523226"/>
  <path d="M15.94,93.83c0,0-1.17,2.2-1.86,3.4c-0.97,1.68-2.68,3.23-2.68,3.23s1.9,2.72,4.24,3.69 c2.35,0.97,3.24-3.16,2.94-6.63c-0.15-1.75-0.52-2.83-1.23-3.39C16.92,93.79,15.94,93.83,15.94,93.83z" fill="#6B4733"/>
  <path d="M41.33,102.89c0.74,1.29,1.52,3.1,1.41,4.86c-0.15,2.57-1.82,4.28-1.82,4.28s2.02,0.61,5.08,0.48 c2.08-0.09,3.34-0.56,3.67-1.15c0.34-0.6-0.34-3.76-1.94-6.29s-2.94-2.77-3.72-3.02C42.87,101.7,41.33,102.89,41.33,102.89z" fill="#6B4733"/>
  <path d="M60.36,101.99c-2.23-0.07-4.47-0.74-4.47-0.74s-0.48,1.45-0.63,3.61c-0.15,2.08-0.26,3.83,0.6,4.13 c0.86,0.3,3.24-0.19,5.66-1.82c1.26-0.85,2.42-2.68,2.64-3.16c0.22-0.48,0.22-2.08,0.22-2.08S62.15,102.05,60.36,101.99z" fill="#6B4733"/>
  <path d="M60.13,112.63c-0.56,0.26-1.49,1.97-2.23,3.13c-0.74,1.15-1.63,2.81-1.56,3.35 c0.11,0.89,1.34,1.45,4.88,1.38c3.54-0.07,5.73-1.19,5.99-1.34c0.26-0.15,0.67-0.82,0.67-0.82s-1.3-1.75-3.65-3.5 C61.88,113.08,60.13,112.63,60.13,112.63z" fill="#6B4733"/>
  <path d="M39.79,83.78c0,0-1.24-1.17-1.96-2.31c-1.04-1.64-1.41-2.76-1.71-5.29 c-0.21-1.76,0.97-5.05-1.45-5.31c-1.82-0.2-2.76,0.87-2.57,4.12c0.15,2.67,1.71,5.81,2.01,6.18c0.3,0.37,0.91,0.97,2.49,1.71 S39.79,83.78,39.79,83.78z" fill="#B3875D"/>
</svg>

<svg viewBox="0 0 128 128" xmlns="http://www.w3.org/2000/svg">
  <defs>
    <linearGradient id="SVGID_1_" gradientUnits="userSpaceOnUse" x1="23.8605" x2="19.9165" y1="70.7817" y2="102.3338">
      <stop offset="0.306" stop-color="#B3875D"/>
      <stop offset="0.5668" stop-color="#A87C5B"/>
      <stop offset="0.9265" stop-color="#916656"/>
    </linearGradient>
    <linearGradient id="SVGID_2_" gradientUnits="userSpaceOnUse" x1="76.3991" x2="72.2626" y1="58.5873" y2="104.0895">
      <stop offset="0.4757" stop-color="#B3875D"/>
      <stop offset="0.7346" stop-color="#A4785A"/>
      <stop offset="0.9854" stop-color="#916656"/>
    </linearGradient>
    <linearGradient id="SVGID_3_" gradientUnits="userSpaceOnUse" x1="41.2991" x2="45.9983" y1="112.1117" y2="70.4907">
      <stop offset="0" stop-color="#865B52"/>
      <stop offset="0.5454" stop-color="#FEAF5F"/>
    </linearGradient>
    <linearGradient id="SVGID_4_" gradientUnits="userSpaceOnUse" x1="62.0575" x2="96.6871" y1="118.415" y2="68.9585">
      <stop offset="0" stop-color="#865B52"/>
      <stop offset="0.1355" stop-color="#9F6C55"/>
      <stop offset="0.4209" stop-color="#DD985B"/>
      <stop offset="0.5603" stop-color="#FEAF5F"/>
    </linearGradient>
    <radialGradient id="SVGID_5_" cx="-0.1165" cy="70.5759" gradientUnits="userSpaceOnUse" r="51.6613">
      <stop offset="0.2263" stop-color="#865B52"/>
      <stop offset="0.2846" stop-color="#895D52"/>
      <stop offset="0.3359" stop-color="#946554"/>
      <stop offset="0.3846" stop-color="#A67255"/>
      <stop offset="0.4317" stop-color="#C08358"/>
      <stop offset="0.4772" stop-color="#E09A5C"/>
      <stop offset="0.5117" stop-color="#FEAF5F"/>
    </radialGradient>
  </defs>
  <path d="M17.75,18.55 C17.75,18.55 14.57,11.4 12.49,12 C10.41,12.6 12.19,22.03 12.19,22.03 L17.75,18.55 Z" fill="#FEAF5F"/>
  <path d="M101.65,56.28 C101.65,56.28 105.42,54.99 108.1,58.66 C110.78,62.33 109.7,66.59 113.29,71.53 C115.55,74.63 118.36,73.79 121.28,72.95 C124.27,72.1 126.54,72.01 126.64,73.94 C126.67,74.52 125.91,78.16 122.67,81.49 C119.1,85.16 114.28,87.74 107.09,84.92 C100.51,82.34 98.67,73.75 98.67,73.75 L101.65,56.28 Z" fill="#865B52"/>
  <path d="M58.46,44.66 C58.46,44.66 66.26,40.01 64.71,35.43 C63.07,30.58 57.07,34.74 55.77,33.15 C54.34,31.39 61.63,26.99 57.46,22.43 C53.29,17.87 48.85,24.33 47.33,22.53 C45.84,20.76 50.8,16.97 47.63,13.1 C44.46,9.23 39.09,12.9 37.5,14.09 C36.33,14.97 34.12,16.57 31.34,17.17 C28.56,17.77 24.09,16.08 20.22,16.08 C16.35,16.08 10.59,18.66 9.4,23.72 C8.21,28.78 7.51,31.17 6.62,31.56 C5.73,31.95 3.24,31.56 3.15,33.35 C3.06,35.14 5.53,35.63 8.91,35.43 C12.29,35.23 17.05,32.85 19.04,30.37 C21.03,27.89 22.71,24.12 22.71,24.12 L58.46,44.66 Z" fill="#865B52"/>
  <path d="M30.56,70.38 C30.56,70.38 25.3,73.66 22.62,74.45 C19.94,75.24 16.37,74.15 13.88,76.63 C11.4,79.11 12.79,81.4 11.8,83.88 C10.81,86.36 6.95,90.11 7.33,93.81 C7.83,98.67 12.05,101.01 12.05,101.01 C12.05,101.01 16.07,97.19 15.97,93.61 C15.87,90.03 15.87,88.35 16.37,86.66 C16.87,84.97 18.85,81.99 20.34,81.5 C21.83,81 27.19,81.2 29.57,81.1 C31.95,81 36.42,80.6 36.42,80.6 L30.56,70.38 Z" fill="url(#SVGID_1_)"/>
  <path d="M87.05,59.56 L62.63,80.8 L61.36,85.49 C61.36,85.49 65.31,84.82 66.6,84.42 C67.89,84.02 69.73,83.58 69.73,83.58 C69.73,83.58 70.36,84.41 70.77,86.46 C71.27,88.94 71.17,90.53 70.97,90.83 C70.42,91.65 66.6,93.21 65.11,93.31 C63.62,93.41 59.85,92.78 58.06,95.59 C56.67,97.77 57.4,98.74 57.27,99.26 C57.07,100.05 55.43,100.5 56.03,101.99 C56.63,103.48 64.12,102.64 64.12,102.64 C64.12,102.64 64.59,100.62 65.01,100.56 C66.05,100.41 67.79,99.96 68.88,98.57 C69.97,97.18 78.41,96.58 79.3,94.8 C80.59,92.22 79.1,88.84 79,85.67 C78.9,82.5 78.9,79.76 79.15,79.22 C82.03,77.53 85.85,73.96 85.85,73.96 L92.7,61.95 L87.05,59.56 Z" fill="url(#SVGID_2_)"/>
  <path d="M28.97,47.94 L31.73,53.25 L45.16,42.58 L32.84,31.96 L27.48,40.99 Z" fill="#B3875D"/>
  <path d="M31.06,51.91 C31.36,52.95 31.75,54.29 31.95,55.48 C32.15,56.67 32.25,58.46 32.25,58.46 C32.25,58.46 28.33,60.74 27.78,64.42 C27.27,67.87 27.9,73.53 29.49,76.41 C31.08,79.29 33.59,81.55 36.19,82.44 C39.01,83.41 42.43,85.29 49,85.87 C53.57,86.27 59.92,87.16 67.76,83.19 C75.6,79.22 81.98,69.59 83.07,67.6 C84.16,65.61 86.35,62.44 87.44,63.33 C88.53,64.22 85.45,66.31 84.66,70.38 C83.87,74.45 84.92,79.35 90.72,81.1 C96.88,82.96 104.84,79.91 106.33,68.29 C107.82,56.67 101.04,48.56 94.79,45.36 C89.93,42.87 84.55,42.66 81.31,43.57 C79.55,44.07 78.01,45.46 76.47,45.95 C75.21,46.36 69.72,46.53 66.79,46.35 C63.36,46.14 64.13,44.85 61.06,42.86 C57.98,40.87 57.04,41.45 55.87,40.29 C54.36,38.8 48.39,30.07 40.18,24.6 C33.03,19.83 29.01,19.49 29.01,19.49 C29.01,19.49 29.68,17.55 29.21,14.48 C28.91,12.54 27.22,9.27 26.13,9.17 C25.09,9.07 23.19,11.89 22.7,14.53 C22.1,17.76 23,19.89 23,19.89 C23,19.89 22.78,26.44 19.05,30.91 C15.32,35.38 30.96,33.14 33.12,34.11 C35.28,35.08 36.98,39.69 36.69,43.72 C36.34,48.93 30.98,51.65 31.06,51.91 Z" fill="#FEAF5F"/>
  <path d="M41.63,82.07 C41.63,82.07 40.89,84.08 40.51,84.38 C40.14,84.68 37.68,87.43 36.56,88.55 C35.44,89.67 34.03,91.21 33.43,91.73 C32.83,92.25 30.32,93.62 30.45,96.22 C30.65,100.22 32.63,100.61 33.06,102.7 C33.41,104.43 33.76,106.85 34.92,108.73 C36.26,110.89 38.15,112.03 41.13,112.03 C44.11,112.03 45.87,106.05 45.87,106.05 C45.87,106.05 43.26,102.33 42.07,102.55 C40.88,102.77 40.68,103.94 39.99,103.52 C39.18,103.03 38.92,101.24 38.7,100.27 C38.48,99.3 37.88,98.14 38.25,97.69 C38.62,97.24 42.41,95.25 44.38,93.92 C47.68,91.69 56.29,84.98 56.29,84.98 C56.29,84.98 62.26,69.53 50.41,71.43 C40.22,73.06 41.63,82.07 41.63,82.07 Z" fill="url(#SVGID_3_)"/>
  <path d="M95.89,59.36 C92.97,58.87 84.92,63.16 84.08,74.2 C83.63,80.11 82.81,84.9 82.44,86.46 C82.07,88.02 81.4,90.11 81.03,90.41 C80.66,90.71 78.53,92.13 76.84,94.6 C75.1,97.13 75.6,99.79 75.08,100.53 C74.56,101.27 72.57,102.94 70.89,104.63 C69.75,105.77 65.93,105.6 64.44,107.31 C62.95,109.02 63.17,110.88 63.17,110.88 C63.17,110.88 60.29,111.62 59.47,113.56 C58.65,115.5 60.56,117.95 62.2,118.18 C63.84,118.41 67.37,118.99 67.71,118.63 C68.8,117.44 68.01,114.91 68.01,114.91 C68.01,114.91 69.65,114.91 71.14,112.9 C72.63,110.89 74.64,109.62 76.35,108.21 C78.06,106.8 84.44,102.17 85.66,99.94 C87.27,96.99 86.7,94.21 87.82,92.42 C88.94,90.63 91.12,88.72 95.22,85.37 C98.5,82.69 102.31,80.33 105,73.7 C108.84,64.17 97.68,59.66 95.89,59.36 Z" fill="url(#SVGID_4_)"/>
  <path d="M33.96,33.37 C32.77,33.82 31.95,33.74 32.02,34.71 C32.09,35.68 35,38.06 34.25,42.6 C33.5,47.14 30.6,49.6 27.92,50.49 C25.24,51.38 22.36,51.26 22.36,51.26 L18.54,55.63 C18.54,55.63 18.79,59.25 16.36,60.89 C14.56,62.1 13.48,61.73 13.48,61.73 C13.48,61.73 11.88,63.1 10.05,62.52 C7.67,61.78 3.5,58.8 3.94,52.34 C4.35,46.4 8.76,42.73 9.75,40.48 C10.21,39.42 10,35.32 10,35.32 C10,35.32 15.76,33.93 18.64,30.6 C20.69,28.23 22.46,24.74 22.56,23.3 C22.66,21.86 39.49,28.36 39.49,28.36 L33.96,33.37 Z" fill="url(#SVGID_5_)"/>
  <path d="M22.89,35.24 C23.63,36.61 23.05,38.24 21.86,38.89 C20.88,39.43 18.81,38.83 18.28,37.49 C17.66,35.91 18.02,34.62 19.22,33.97 C20.42,33.33 22.15,33.87 22.89,35.24 Z" fill="#2F2927"/>
  <path d="M6.98,53.55 C6.16,54.33 6.24,55.88 7.13,57.42 C8.02,58.96 9.07,59.7 10.06,59.06 C11.05,58.42 10.61,56.53 9.96,55.04 C9.31,53.55 7.83,52.76 6.98,53.55 Z" fill="#523226"/>
  <path d="M14.42,55.34 C14.42,55.04 12.93,52.47 14.64,51.54 C15.77,50.93 17.02,51.84 16.91,53.4 C16.8,54.9 16.13,55.45 16.13,55.45 C16.13,55.45 16.28,56.23 15.72,59.06 C15.3,61.21 14.49,61.48 13.97,61.89 C13.58,62.2 11.62,62.86 11.92,62.37 C12.22,61.89 13.71,60.06 14.04,58.39 C14.29,57.15 14.42,55.34 14.42,55.34 Z" fill="#523226"/>
  <path d="M15.94,93.83 C15.94,93.83 14.77,96.03 14.08,97.23 C13.11,98.91 11.4,100.46 11.4,100.46 C11.4,100.46 13.3,103.18 15.64,104.15 C17.99,105.12 18.88,100.99 18.58,97.52 C18.43,95.77 18.06,94.69 17.35,94.13 C16.92,93.79 15.94,93.83 15.94,93.83 Z" fill="#6B4733"/>
  <path d="M41.33,102.89 C42.07,104.18 42.85,105.99 42.74,107.75 C42.59,110.32 40.92,112.03 40.92,112.03 C40.92,112.03 42.94,112.64 46,112.51 C48.08,112.42 49.34,111.95 49.67,111.36 C50.01,110.76 49.33,107.6 47.73,105.07 C46.13,102.54 44.79,102.3 44.01,102.05 C42.87,101.7 41.33,102.89 41.33,102.89 Z" fill="#6B4733"/>
  <path d="M60.36,101.99 C58.13,101.92 55.89,101.25 55.89,101.25 C55.89,101.25 55.41,102.7 55.26,104.86 C55.11,106.94 55,108.69 55.86,108.99 C56.72,109.29 59.1,108.8 61.52,107.17 C62.78,106.32 63.94,104.49 64.16,104.01 C64.38,103.53 64.38,101.93 64.38,101.93 C64.38,101.93 62.15,102.05 60.36,101.99 Z" fill="#6B4733"/>
  <path d="M60.13,112.63 C59.57,112.89 58.64,114.6 57.9,115.76 C57.16,116.91 56.27,118.57 56.34,119.11 C56.45,120 57.68,120.56 61.22,120.49 C64.76,120.42 66.95,119.3 67.21,119.15 C67.47,119 67.88,118.33 67.88,118.33 C67.88,118.33 66.58,116.58 64.23,114.83 C61.88,113.08 60.13,112.63 60.13,112.63 Z" fill="#6B4733"/>
  <path d="M39.79,83.78 C39.79,83.78 38.55,82.61 37.83,81.47 C36.79,79.83 36.42,78.71 36.12,76.18 C35.91,74.42 37.09,71.13 34.67,70.87 C32.85,70.67 31.91,71.74 32.1,74.99 C32.25,77.66 33.81,80.8 34.11,81.17 C34.41,81.54 35.02,82.14 36.6,82.88 C38.18,83.62 39.79,83.78 39.79,83.78 Z" fill="#B3875D"/>
</svg>
